icons/evolvere-blue-folders-flat-vivid-dark-fallback/apps/64/akregator.svg

<?xml version="1.0" encoding="UTF-8" standalone="no"?>
<!-- Created with Inkscape (http://www.inkscape.org/) -->

<svg
   xmlns:dc="http://purl.org/dc/elements/1.1/"
   xmlns:cc="http://creativecommons.org/ns#"
   xmlns:rdf="http://www.w3.org/1999/02/22-rdf-syntax-ns#"
   xmlns:svg="http://www.w3.org/2000/svg"
   xmlns="http://www.w3.org/2000/svg"
   xmlns:sodipodi="http://sodipodi.sourceforge.net/DTD/sodipodi-0.dtd"
   xmlns:inkscape="http://www.inkscape.org/namespaces/inkscape"
   width="64"
   height="64"
   id="svg13094"
   version="1.1"
   inkscape:version="0.91+devel r"
   sodipodi:docname="akregator.svg">
  <sodipodi:namedview
     id="base"
     pagecolor="#ffffff"
     bordercolor="#666666"
     borderopacity="1.0"
     inkscape:pageopacity="0"
     inkscape:pageshadow="2"
     inkscape:zoom="11.313709"
     inkscape:cx="35.286213"
     inkscape:cy="32.281081"
     inkscape:document-units="px"
     inkscape:current-layer="svg13094"
     showgrid="true"
     inkscape:snap-bbox="true"
     inkscape:bbox-paths="true"
     inkscape:bbox-nodes="true"
     inkscape:snap-bbox-edge-midpoints="true"
     inkscape:snap-bbox-midpoints="true"
     inkscape:object-paths="true"
     inkscape:snap-intersection-paths="true"
     inkscape:object-nodes="true"
     inkscape:snap-smooth-nodes="true"
     inkscape:snap-midpoints="true"
     inkscape:snap-object-midpoints="true"
     inkscape:snap-center="true"
     showguides="true"
     inkscape:guide-bbox="true"
     inkscape:window-width="1920"
     inkscape:window-height="1023"
     inkscape:window-x="-10"
     inkscape:window-y="35"
     inkscape:window-maximized="1"
     inkscape:snap-global="true"
     fit-margin-top="0"
     fit-margin-left="0"
     fit-margin-right="0"
     fit-margin-bottom="0"
     showborder="true"
     inkscape:showpageshadow="false"
     inkscape:snap-page="true">
    <inkscape:grid
       type="xygrid"
       id="grid3075"
       empspacing="5"
       visible="true"
       enabled="true"
       snapvisiblegridlinesonly="true"
       originx="1.6362304e-08px"
       originy="18px" />
  </sodipodi:namedview>
  <defs
     id="defs13096" />
  <metadata
     id="metadata13099">
    <rdf:RDF>
      <cc:Work
         rdf:about="">
        <dc:format>image/svg+xml</dc:format>
        <dc:type
           rdf:resource="http://purl.org/dc/dcmitype/StillImage" />
        <dc:title></dc:title>
      </cc:Work>
    </rdf:RDF>
  </metadata>
  <path
     style="color:#000000;fill:#e76d32;fill-opacity:1;fill-rule:nonzero;stroke:none;stroke-width:2.28571415;marker:none;visibility:visible;display:inline;overflow:visible;enable-background:accumulate"
     d="M 0 4 L 0 34 L 0 62 L 2 64 L 32 64 L 62 64 L 64 62 L 64 34 L 64 4 L 32 4 L 0 4 z "
     id="path6498" />
  <path
     style="color:#000000;fill:#ff9b40;fill-opacity:1;fill-rule:nonzero;stroke:none;marker:none;visibility:visible;display:inline;overflow:visible;enable-background:accumulate"
     d="M 2 0 L 0 1 L 0 4 L 32 4 L 64 4 L 64 1 L 62 0 L 32 0 L 2 0 z "
     id="path6502" />
  <path
     style="fill:#ffb240;fill-opacity:1;fill-rule:nonzero"
     d="M 0,3 0,6 2,4 Z"
     id="path4298"
     inkscape:connector-curvature="0"
     sodipodi:nodetypes="cccc" />
  <path
     d="M 64,6 62,4 64,3 z"
     id="path3028"
     style="fill:#f4853a;fill-opacity:1"
     inkscape:connector-curvature="0" />
  <g
     id="g3043"
     inkscape:export-filename="folder.png"
     inkscape:export-xdpi="90"
     inkscape:export-ydpi="90"
     transform="translate(-0.62500009,0.082283)" />
  <g
     id="scalable"
     transform="matrix(1.0385892,0,0,1.0385892,1214.7222,1878.8121)"
     inkscape:label="#g3701"
     style="fill:#ffffff" />
  <path
     inkscape:connector-curvature="0"
     style="color:#000000;fill:#e2e5e5;fill-opacity:1;fill-rule:nonzero;stroke:none;stroke-width:2.28571415;marker:none;visibility:visible;display:inline;overflow:visible;enable-background:accumulate"
     d="m 11,13 0,9 c 18.225396,0 33,14.774604 33,33 l 9,0 C 53,31.804042 34.195958,13 11,13 z m 0,15 0,9 c 9.941127,0 18,8.058873 18,18 l 9,0 C 38,40.088311 25.911689,28 11,28 z m 0,15 0,9 c 1.656855,0 3,1.343145 3,3 l 9,0 C 23,48.372583 17.627417,43 11,43 z"
     id="path4185" />
  <path
     style="color:#000000;fill:#601f00;fill-opacity:0.13237925;fill-rule:nonzero;stroke:none;stroke-width:2.28571415;marker:none;visibility:visible;display:inline;overflow:visible;enable-background:accumulate"
     d="M 12 22.03125 L 12 23 C 20.859763 23 28.915783 26.474198 34.84375 32.15625 C 29.053772 26.115687 20.962797 22.300452 12 22.03125 z M 42.09375 26.75 C 48.872842 34.208661 53 44.126895 53 55 L 44.96875 55 C 44.978816 55.335147 45 55.662413 45 56 L 54 56 C 54 44.617155 49.447091 34.314485 42.09375 26.75 z M 31 36.84375 C 35.357987 41.638603 38 48.010146 38 55 L 29.9375 55 C 29.955802 55.332615 30 55.662813 30 56 L 39 56 C 39 48.504542 35.931878 41.735804 31 36.84375 z M 12 37.0625 L 12 38 C 16.715517 38 20.978229 39.845189 24.1875 42.8125 C 21.111385 39.485552 16.822142 37.327832 12 37.0625 z M 19.96875 47.03125 C 21.85313 49.150685 23 51.940911 23 55 L 14.8125 55 C 14.926021 55.316472 15 55.644467 15 56 L 24 56 C 24 52.431672 22.441002 49.229318 19.96875 47.03125 z M 12 52.1875 L 12 53 C 12.572037 53 13.107618 53.159658 13.5625 53.4375 C 13.208282 52.857576 12.649159 52.420359 12 52.1875 z "
     id="path3067" />
</svg>

<svg xmlns="http://www.w3.org/2000/svg" viewBox="0 0 64 64"><g color="#000"><path d="m0 4v30 28l2 2h30 30l2-2v-28-30h-32-32" fill="#e76d32"/><path d="m2 0l-2 1v3h32 32v-3l-2-1h-30-30" fill="#ff9b40"/></g><path d="m0 3v3l2-2" fill="#ffb240"/><path d="m64 6l-2-2 2-1z" fill="#f4853a"/><g color="#000"><path d="m11 13v9c18.225 0 33 14.775 33 33h9c0-23.2-18.804-42-42-42m0 15v9c9.941 0 18 8.06 18 18h9c0-14.912-12.09-27-27-27m0 15v9c1.657 0 3 1.343 3 3h9c0-6.627-5.373-12-12-12" fill="#e2e5e5"/><path d="m12 22.03v.969c8.86 0 16.916 3.474 22.844 9.156-5.79-6.04-13.881-9.856-22.844-10.125m30.09 4.719c6.779 7.459 10.906 17.377 10.906 28.25h-8.03c.01.335.031.662.031 1h9c0-11.383-4.553-21.686-11.906-29.25m-11.09 10.09c4.358 4.795 7 11.166 7 18.16h-8.06c.018.333.063.663.063 1h9c0-7.495-3.068-14.264-8-19.16m-19 .219v.938c4.716 0 8.978 1.845 12.188 4.813-3.076-3.327-7.365-5.485-12.188-5.75m7.969 9.969c1.884 2.119 3.03 4.91 3.03 7.969h-8.188c.114.316.188.644.188 1h9c0-3.568-1.559-6.771-4.03-8.969m-7.969 5.156v.813c.572 0 1.108.16 1.563.438-.354-.58-.913-1.017-1.563-1.25" fill="#601f00" fill-opacity=".132"/></g></svg>
